githubassets/type-ip.svg

<?xml version="1.0" encoding="UTF-8" standalone="no"?>
<svg
   width="180pt"
   height="180pt"
   version="1.0"
   viewBox="0 0 180 180"
   id="svg1077"
   sodipodi:docname="type-ip.svg"
   inkscape:version="1.1.1 (3bf5ae0d25, 2021-09-20)"
   xmlns:inkscape="http://www.inkscape.org/namespaces/inkscape"
   xmlns:sodipodi="http://sodipodi.sourceforge.net/DTD/sodipodi-0.dtd"
   xmlns="http://www.w3.org/2000/svg"
   xmlns:svg="http://www.w3.org/2000/svg">
  <defs
     id="defs1081" />
  <sodipodi:namedview
     id="namedview1079"
     pagecolor="#ffffff"
     bordercolor="#666666"
     borderopacity="1.0"
     inkscape:pageshadow="2"
     inkscape:pageopacity="0.0"
     inkscape:pagecheckerboard="0"
     inkscape:document-units="pt"
     showgrid="false"
     inkscape:zoom="2.5721009"
     inkscape:cx="234.6331"
     inkscape:cy="163.48503"
     inkscape:window-width="1654"
     inkscape:window-height="1333"
     inkscape:window-x="1169"
     inkscape:window-y="17"
     inkscape:window-maximized="0"
     inkscape:current-layer="svg1077" />
  <path
     style="fill:#353535;fill-opacity:1;stroke:none;stroke-width:1.33557px;stroke-linecap:butt;stroke-linejoin:miter;stroke-opacity:1"
     d="m 90.000228,179.31123 c 0,0 61.531052,-58.67539 61.011812,-122.024068 0,0 4.6e-4,-56.59839365 -61.011812,-56.59839365 -61.012266,0 -61.012266,56.59839365 -61.012266,56.59839365 C 28.46871,120.11656 90.000228,179.31123 90.000228,179.31123 Z M 79.29173,99.819073 V 27.273504 h 27.36543 c 4.81657,0 8.49499,0.23093 11.03523,0.692794 3.56295,0.593825 6.54857,1.731988 8.95685,3.414492 2.40828,1.649512 4.33822,3.975327 5.78979,6.977439 1.48457,3.002112 2.22684,6.30114 2.22684,9.897076 0,6.169178 -1.95468,11.405677 -5.88875,15.686867 -3.91763,4.263303 -11.01875,6.38362 -21.27871,6.38362 H 93.352481 V 99.819073 Z M 93.352481,57.647351 h 12.577059 c 5.45401,0 9.33213,-0.803243 11.62524,-2.409729 2.29313,-1.606484 3.43969,-3.867038 3.43969,-6.781661 0,-2.111381 -0.68213,-3.91294 -2.04641,-5.404676 -1.33521,-1.514686 -3.10586,-2.513003 -5.31191,-2.994948 -1.42231,-0.298346 -4.04923,-0.447521 -7.88078,-0.447521 H 93.352481 Z M 52.767565,99.819072 V 27.273504 h 14.060752 v 72.545568 z"
     id="path55489"
     sodipodi:nodetypes="ccsccccscccsssccccsssccsccccccc" />
</svg>

<?xml version="1.0" encoding="UTF-8"?>
<svg width="180pt" height="180pt" version="1.0" viewBox="0 0 180 180" xmlns="http://www.w3.org/2000/svg">
<path d="m90 179.31s61.531-58.675 61.012-122.02c0 0 4.6e-4 -56.598-61.012-56.598-61.012 0-61.012 56.598-61.012 56.598-0.51925 62.829 61.012 122.02 61.012 122.02zm-10.708-79.492v-72.546h27.365c4.8166 0 8.495 0.23093 11.035 0.69279 3.563 0.59382 6.5486 1.732 8.9568 3.4145 2.4083 1.6495 4.3382 3.9753 5.7898 6.9774 1.4846 3.0021 2.2268 6.3011 2.2268 9.8971 0 6.1692-1.9547 11.406-5.8888 15.687-3.9176 4.2633-11.019 6.3836-21.279 6.3836h-14.146v29.493zm14.061-42.172h12.577c5.454 0 9.3321-0.80324 11.625-2.4097 2.2931-1.6065 3.4397-3.867 3.4397-6.7817 0-2.1114-0.68213-3.9129-2.0464-5.4047-1.3352-1.5147-3.1059-2.513-5.3119-2.9949-1.4223-0.29835-4.0492-0.44752-7.8808-0.44752h-12.403zm-40.585 42.172v-72.546h14.061v72.546z" fill="#353535"/>
</svg>
